X:13984
T:Rathlin Island
R:reel
S:
H:
N:
D:Taped from Clare FM
Z:Adrian Scahill
M:4/4
L:1/8
K:D
(3efe dB eAAB|(3efe dA BGBd|(3efe dB eAAB|d2BG BAA2:||\
A3B EGBG|A3B deed|AGAB e2AB|dged BAAB:||

